static/images/mobile/copyright/wikipedia-wordmark-kn.svg

<?xml version="1.0" encoding="UTF-8"?>
<svg width="118px" height="20px" viewBox="0 0 118 20" version="1.1" xmlns="http://www.w3.org/2000/svg" xmlns:xlink="http://www.w3.org/1999/xlink">
    <title>kn-wordmark</title>
    <g id="Page-1" stroke="none" stroke-width="1" fill="none" fill-rule="evenodd">
        <path d="M17,13.2361472 C17,15.430589 16.7409603,17.0277994 16.222935,18.0277786 C15.5321937,19.3425929 14.287074,20 12.4875711,20 C11.1879048,20 10.1472757,19.3518468 9.36567885,18.0555655 C9.12936472,17.6759276 8.85671232,17.0092665 8.54771429,16.0555822 C8.54770447,16.6666945 8.33867473,17.3333556 7.92061034,18.0555655 C7.16625862,19.3518468 5.95294784,20 4.28067358,20 C2.68109746,20 1.5223174,19.3981417 0.804330466,18.1944501 C0.268108519,17.3148226 0,16.1944668 0,14.8333576 C0,13.6111581 0.336272109,12.6620758 1.00882124,11.9861607 C1.590481,11.3935814 2.31755864,11.0972792 3.19005613,11.0972792 C3.93530635,11.0972792 4.56695491,11.3378825 5.08500527,11.8194892 C5.63939341,12.3287578 5.91659238,12.9815129 5.91659975,13.7778046 C5.91659238,14.351876 5.73937643,14.8194767 5.38492487,15.1805817 C5.0395542,15.5416866 4.64420798,15.7222391 4.19887737,15.7222391 C3.82624465,15.7222391 3.51723655,15.5834296 3.27185259,15.3055853 C3.31729138,15.3611091 3.53086942,15.2778234 3.91259039,15.055478 C4.35792002,14.8056207 4.58058753,14.4443657 4.58059343,13.9721631 C4.58058753,13.4351326 4.41699511,13.0091998 4.08981567,12.6943897 C3.78989067,12.4073415 3.41271923,12.2638299 2.95829987,12.2638299 C2.43116446,12.2638299 1.96765244,12.4629153 1.56776258,12.8610362 C1.12242485,13.3147559 0.899757332,13.9119622 0.899759296,14.6527051 C0.899757332,16.3286244 2.00400642,17.166584 4.21250999,17.166584 C5.45762596,17.166584 6.44826726,16.8888148 7.18444248,16.3332514 C7.71156587,15.9351055 8.10691455,15.393448 8.37048852,14.708254 C8.48862103,14.347149 8.60223643,13.990671 8.7113077,13.63882 C8.75674894,13.9443761 8.80219019,14.2499323 8.84763144,14.5554884 C9.00212186,15.2591904 9.29295812,15.8240078 9.7201255,16.2499156 C10.3108666,16.8610279 11.1288287,17.166584 12.1740143,17.166584 C14.709685,17.166584 15.9775277,15.5925085 15.9775449,12.4443824 C15.9775277,11.0277244 15.709417,9.6527343 15.1732127,8.31941208 C14.5733588,6.82869732 13.7690291,5.75461135 12.7602235,5.09720422 C12.7874736,5.48609612 12.8010986,5.69443553 12.8011231,5.72219744 C12.8011084,7.33331388 12.0922077,8.13885959 10.6744187,8.13885959 C9.75647113,8.13885959 8.97486202,7.73145975 8.32959139,6.91663506 C7.73883062,6.16666319 7.44799927,5.33333055 7.45709734,4.41663714 C7.46618068,3.71296015 7.67065402,3.14814274 8.07056891,2.72220995 C8.5158956,2.24075332 9.14754368,2 9.96551805,2 C11.9013496,2 13.5827175,3.2361055 15.0096242,5.70831649 C16.3365234,8.02313493 17,10.5323618 17,13.2360471 M12.0649553,5.2083019 C12.0649553,4.87498385 12.0376807,4.65741547 11.9831561,4.55554676 C11.5923368,4.19444178 11.0197648,4.01386428 10.2654327,4.01386428 C9.17480351,4.01386428 8.62950608,4.53703881 8.62950608,5.58331284 C8.62950608,6.53702214 9.13390639,7.01385178 10.1427389,7.01385178 C10.6425926,7.01385178 11.0788384,6.86103619 11.4514788,6.55553008 C11.8604476,6.21295806 12.0649553,5.76389034 12.0649553,5.2083019 M33,11.4722178 L29.6697893,11.4722178 C30.1850014,11.7592676 30.6533838,12.2129648 31.0749417,12.8333345 C31.5901512,13.6018436 31.8477636,14.4259268 31.8477763,15.3055592 C31.8477636,16.8148153 31.3512763,18 30.3583143,18.8611049 C29.4777415,19.62036 28.3910924,20 27.098362,20 C25.8243488,20 24.7517509,19.62036 23.8805606,18.8611049 C22.8969509,18 22.4051473,16.8148153 22.4051524,15.3055592 C22.4051473,14.4259268 22.6674434,13.6018436 23.1920381,12.8333345 C23.6042108,12.2129648 24.0725933,11.7592676 24.5971905,11.4722178 L21,11.4722178 L21,9.43055523 L26.5503512,9.43055523 C27.674465,8.34723428 28.269313,7.48148292 28.3348953,6.83332615 C27.7915606,7.38889267 27.20608,7.66666342 26.5784535,7.66666342 C25.8384,7.66666342 25.2622893,7.41205274 24.8501166,6.90278135 C24.4941385,6.44908412 24.3161545,5.86575553 24.3161595,5.15277058 C24.3161545,4.35649942 24.5503457,3.64816649 25.0187357,3.0277718 C25.5339504,2.34259894 26.1803219,2 26.9578452,2 C27.9039725,2 28.6814908,2.23610264 29.2903976,2.70833293 C29.8992867,3.17130919 30.2037363,3.78705187 30.2037489,4.55556096 C30.2037363,6.10185817 29.3700133,7.7268646 27.7025775,9.43055523 L33,9.43055523 L33,11.4722178 M28.2224935,4.87499983 C28.2224935,4.70842741 28.1428525,4.51851986 27.983616,4.30555227 C27.7025775,3.96297835 27.2763485,3.79167888 26.7049292,3.79165387 C26.1990669,3.79167888 25.7962566,3.91670824 25.4964983,4.1666669 C25.2060923,4.4075216 25.0608994,4.6805653 25.0608994,4.98609812 C25.0608994,5.83796845 25.5761165,6.26390361 26.6065685,6.2638786 C27.6182679,6.26390361 28.1569113,5.80092735 28.2224935,4.87499983 M30.4145316,14.3472176 C30.4145316,13.4490772 30.1381743,12.7129572 29.5854899,12.1388826 C28.985948,11.5092589 28.1569113,11.194447 27.0983721,11.194447 C26.1615946,11.194447 25.3653439,11.5092589 24.7096125,12.1388826 C24.063236,12.7592523 23.7400565,13.4953723 23.7400565,14.3472176 C23.7400565,15.3194403 24.0866546,16.0740683 24.7798684,16.6111018 C25.39813,17.0925861 26.170962,17.3333407 27.0983721,17.3333407 C28.0163945,17.3333407 28.7798591,17.092486 29.3887684,16.6111018 C30.0725996,16.0740683 30.4145316,15.3194403 30.4145316,14.3472176 M46.9531195,6.88136482 C46.9531195,7.87983318 46.6919907,8.69800138 46.1697728,9.33589438 C45.5925572,10.0477804 44.7725636,10.4037109 43.7097894,10.4037109 C43.077606,10.4037109 42.5141455,10.2651145 42.0194077,9.987672 C41.4788465,9.68261011 41.2085683,9.28969559 41.2085758,8.80892844 C41.2085683,8.5316108 41.3093497,8.32359135 41.5109199,8.18489507 C41.8590677,8.88754131 42.6011843,9.23885194 43.7372745,9.23882697 C44.5068688,9.23885194 45.1115571,8.98460873 45.5513394,8.4761223 C45.9361316,8.03236413 46.1285327,7.49153854 46.1285426,6.85362057 C46.1285327,6.13251979 46.0735524,5.68876162 45.9636217,5.52234607 C46.0002488,5.6055039 45.7757842,5.90140095 45.2902181,6.4098624 C44.6946816,7.02930086 44.0075353,7.3390076 43.2287793,7.33898263 C42.4133567,7.3390076 41.753698,7.05240026 41.2497986,6.47921054 C40.7916928,5.94300484 40.5626523,5.30973171 40.5626523,4.5793662 C40.5626523,3.85826542 40.7687786,3.26195134 41.1810832,2.79044892 C41.6391741,2.26350795 42.2759284,2 43.0913486,2 C44.2823919,2 45.2398162,2.52699092 45.9636217,3.58089784 C46.6232679,4.52390267 46.9531195,5.62405834 46.9531195,6.88136482 M53,13.6764336 C53,15.4329868 52.6747318,16.8751883 52.0242522,18.0030882 C51.2637924,19.3343627 50.1322929,20 48.6297487,20 C47.557788,20 46.5316508,19.4452898 45.551332,18.3358944 C44.7725562,17.4576178 44.3831732,16.8798082 44.3831856,16.6024656 C44.3831732,16.9537762 44.0762482,17.5315858 43.4624081,18.3358944 C42.6103386,19.4452898 41.5658779,20 40.3290211,20 C38.8539423,20 37.7224427,19.3667269 36.9345176,18.1001557 C36.3115034,17.0924475 36,15.8998443 36,14.5223461 C36,13.3667269 36.3435719,12.4422265 37.0307181,11.748845 C37.6445657,11.1294315 38.377523,10.8151049 39.2295876,10.8058652 C39.9991843,10.7958762 40.6451028,11.0276194 41.1673406,11.4992217 C41.7353746,12.0262126 42.0193928,12.7426935 42.0194003,13.6486894 C42.0193928,14.1756553 41.7674406,14.6332981 41.2635411,15.0215678 C40.8237613,15.3543989 40.3794056,15.5208144 39.9304764,15.5207895 C39.5639928,15.5208144 39.3807535,15.3866881 39.3807584,15.1186352 C40.2419773,14.785829 40.672588,14.2958471 40.6725954,13.6486894 C40.672588,13.2049312 40.4893363,12.8443808 40.1228774,12.5670382 C39.7563938,12.2804309 39.3395257,12.1371397 38.8722706,12.1371397 C38.3225502,12.1371397 37.8644543,12.3082001 37.4979782,12.650221 C37.0765267,13.0477804 36.8658022,13.62559 36.8658047,14.3836748 C36.8658022,16.2419152 37.9927209,17.1710354 40.2465631,17.1710354 C41.8132492,17.1710354 42.9722364,16.6440695 43.7235245,15.5901376 C44.163287,14.9707241 44.3831732,14.4160389 44.3831856,13.926032 C44.3831732,14.3975344 44.6122286,14.9430048 45.0703318,15.5623933 C45.8490854,16.6348297 47.058462,17.1710354 48.6984641,17.1710354 C50.9431248,17.1710354 52.0654626,16.214171 52.0654799,14.300467 C52.0654626,13.06164 51.502002,11.8597971 50.3751007,10.6949131 C49.8436913,10.1402279 49.5779941,9.62250173 49.5780114,9.14175955 C49.5779941,8.82743293 49.6879421,8.56394996 49.9078407,8.35131063 C50.1002318,8.16651545 50.2972063,8.07396802 50.4987864,8.07396802 C51.1767536,8.07396802 51.7631185,8.64253785 52.257881,9.77965255 C52.7526088,10.9168172 53,12.2157276 53,13.6764336 M45.4551315,4.5793662 C45.0794812,3.92296871 44.470212,3.59475748 43.627324,3.59475748 C43.0775986,3.59475748 42.6240811,3.77056263 42.2667741,4.12172342 C41.9186115,4.47305903 41.7445438,4.87521331 41.7445438,5.32821123 C41.7445438,6.14178452 42.239279,6.54853371 43.2287793,6.54853371 C44.3098795,6.54853371 45.051996,5.89216119 45.4551315,4.5793662 M64,20 L59.7079328,20 C58.4973483,19.168192 57.5619003,17.9433313 56.9015865,16.325418 C56.3005281,14.8537482 56,13.272402 56,11.5813545 C56,9.72579233 56.3470877,8.1901487 57.0412676,6.97439894 C57.794703,5.65815767 58.8148071,5 60.1015823,5 C61.0920508,5 61.8497211,5.3565103 62.3745956,6.06948153 C62.8401964,6.70020773 63.0729991,7.48631307 63.0730082,8.42779755 C63.0645474,9.40587377 62.8232656,10.2513852 62.3491995,10.9643564 C61.8412557,11.7504617 61.1978727,12.1435144 60.4190435,12.1435144 C59.6486682,12.1435144 59.0518448,11.8053 58.6285686,11.1288958 C58.2560779,10.5347366 58.0698349,9.77606277 58.0698394,8.85284948 C58.0698349,8.64273087 58.0783002,8.35009564 58.0952447,7.97531415 C57.2148195,8.93511919 56.7746102,10.1371162 56.7746125,11.5813545 C56.7746102,13.272402 57.3545029,14.8674516 58.5142928,16.3665529 C59.8349204,18.0667359 61.6634872,19.2778685 64,20 M62.3873051,8.53747403 C62.3873051,7.42231455 61.7566087,6.86472246 60.4952434,6.86472246 C59.885715,6.86472246 59.2888893,7.07039673 58.7047685,7.48172059 C58.7047685,9.32817186 59.3608474,10.2513852 60.673021,10.2513852 C61.164018,10.2513852 61.5788333,10.0731177 61.9174625,9.71663204 C62.2306818,9.37844231 62.3873051,8.98538964 62.3873051,8.53747403 M83.9994408,15.222223 C83.9807963,16.5277655 83.6076664,17.6203655 82.8801367,18.5 C82.0686236,19.5 80.9493195,20 79.5222219,20 C77.2183075,20 75.8051858,18.7685146 75.2828543,16.3055439 C74.7325207,18.7685146 73.3473835,20 71.1274375,20 C69.998801,20 69.0520546,19.5555568 68.2872006,18.6666704 C67.429066,17.6851937 67,16.337958 67,14.6249884 C67,13.3286998 67.3031449,12.0879605 67.9094373,10.9027702 C68.3385008,10.078712 68.8981515,9.31482992 69.5883921,8.61109899 C70.1014039,8.09259859 70.3858917,7.83333588 70.441863,7.83333588 C69.8262409,7.83333588 69.2386057,7.51389701 68.6789574,6.87499427 C68.1193016,6.23611653 67.8394774,5.60649282 67.83948,4.98609812 C67.8394774,4.14353184 68.2452252,3.44907995 69.0567233,2.90276745 C69.9614893,2.30093082 71.2253691,2 72.8483677,2 C75.105623,2 77.0644045,2.57409957 78.7247174,3.72222369 C80.0398847,4.62964316 81.0845679,5.8194604 81.8587693,7.29167541 C82.4836986,8.47686564 82.7961708,9.50001042 82.7961885,10.3611098 C82.7961708,10.5461902 82.7727568,10.81018 82.7262211,11.1527789 C82.6889068,11.4490827 82.6702371,11.6018491 82.6702623,11.6111032 C83.5750132,12.4814815 84.0180727,13.6851798 83.9994358,15.222223 M81.2991135,8.34720927 C81.1125422,7.90279107 80.9213325,7.45372085 80.7254692,6.99999861 C80.1378189,5.96297279 79.3869534,5.11575449 78.4728676,4.45831869 C77.2043115,3.5416702 75.721235,3.08332094 74.0236331,3.08332094 C72.3446682,3.08332094 71.2067095,3.34260866 70.6097545,3.86110907 C70.22732,4.203708 70.0361102,4.73148744 70.0361102,5.44444738 C70.0361102,5.80555436 70.1526889,6.19444842 70.3858917,6.61110455 C70.6470587,7.08333484 70.931549,7.31946249 71.2393626,7.31943748 C72.6384858,6.72685487 74.0935803,6.43057607 75.6046513,6.43055106 C77.740644,6.43057607 79.6387956,7.0694538 81.2991135,8.34720927 M81.6488949,11.555554 C81.182502,11.0833487 80.5715486,10.8472211 79.8160345,10.8472211 C79.2656959,10.8472211 78.8133091,10.9675234 78.4588766,11.2083281 C78.1417281,11.4211706 77.9831741,11.6805584 77.9831741,11.9861162 C77.9831741,12.6249939 78.4028977,12.9444578 79.2423902,12.9444328 C79.9512678,12.9444578 80.5715486,12.7175842 81.1032351,12.2638869 C81.5789225,11.8472308 81.76081,11.6111032 81.6488949,11.555554 M83.1879402,14.1805452 C83.1599483,13.4120361 82.894105,12.7361172 82.3904357,12.1527636 C82.4090802,12.162768 82.2878152,12.3425962 82.0266608,12.6944491 C81.7095073,13.1203843 81.3410712,13.4629582 80.9213476,13.7222209 C80.32437,14.1018609 79.6481229,14.2916685 78.8926088,14.2916685 C78.183701,14.2916685 77.6193866,14.0833279 77.1996605,13.6666718 C76.8172184,13.2963108 76.6260036,12.8287075 76.6260162,12.2638869 C76.6353385,11.6805584 76.8591988,11.180566 77.2975997,10.7638849 C77.801274,10.2916796 78.4681913,10.0555519 79.2983566,10.0555519 C79.9326132,10.0555519 80.5109211,10.1758542 81.0332778,10.4166589 C81.4250195,10.5927355 81.6208954,10.6990817 81.620913,10.7360978 C81.6208954,9.76390014 81.0146081,8.91668184 79.8020435,8.19444286 C78.5614669,7.46297488 77.0550721,7.09721587 75.2828493,7.09721587 C73.3613694,7.09721587 71.7337147,7.68056947 70.3998851,8.84722664 C68.9914221,10.078712 68.2871955,11.6666773 68.2871955,13.6110976 C68.2871955,14.7499927 68.6043289,15.6435311 69.2386057,16.2916629 C69.8169085,16.8935245 70.5537831,17.1944304 71.4492319,17.1944304 C73.5385932,17.1944304 74.816464,16.1759376 75.2828493,14.138877 C75.2828392,14.500009 75.5393476,15.0000014 76.0523719,15.6388791 C76.8638574,16.6573969 78.0204707,17.1666683 79.5222169,17.1666683 C80.7627633,17.1666683 81.7095073,16.8564834 82.3624512,16.2361138 C82.9500688,15.6898263 83.2252318,15.0046284 83.1879402,14.1805452 M118,13.0811578 C118,15.0343994 117.594738,16.6299864 116.784314,17.8679435 C115.860739,19.2893227 114.527255,20 112.783857,20 C110.578636,20 109.066096,18.688674 108.246238,16.0660221 C108.057739,17.2306351 107.562982,18.1659766 106.761972,18.8720714 C105.894949,19.6240155 104.768791,20 103.383493,20 C102.252605,20 101.23011,19.5690013 100.316007,18.7070039 C99.6563161,18.0834428 99.0861704,17.2764844 98.6055649,16.2861039 C98.2568656,15.5524896 98.0825223,15.103161 98.0825351,14.9380935 C98.0825223,15.5524896 97.7573975,16.4099045 97.1071606,17.5103136 C96.1270616,19.1701045 94.8030006,20 93.134975,20 C91.1936422,20 89.6528313,19.0875708 88.5125398,17.2627123 C87.5041799,15.6487955 87,13.718491 87,11.4717987 C87,9.59195073 87.4193642,8.0238585 88.2580952,6.76754679 C89.1816368,5.39204163 90.4303058,4.70427667 92.0041047,4.70427667 C94.1433273,4.70427667 95.8113605,5.77260855 97.0082094,7.90922275 C97.9128934,9.52316432 98.3652406,11.2058675 98.3652533,12.9573571 C99.1003059,15.7359117 100.683523,17.1251643 103.114911,17.1251643 C104.23634,17.1251643 105.098627,16.7766993 105.701779,16.0797694 C106.248345,15.4562084 106.526351,14.6217305 106.535795,13.5763357 C106.554633,12.0816123 106.069292,10.7106896 105.0798,9.46354283 C104.005454,8.09722737 102.676681,7.41404486 101.093479,7.41404486 L98.8882806,7.41404486 L98.8882806,5.04813438 L103.906521,5.04813438 C105.989189,5.04815915 107.030531,4.25036567 107.030552,2.65475393 C107.030531,1.99450848 106.625303,1.31593321 105.814866,0.618978558 L106.45098,0 C107.70434,1.17380271 108.331031,2.30170653 108.331054,3.38376101 C108.331031,6.07061691 106.856188,7.41404486 103.906521,7.41404486 L103.637941,7.41404486 C104.533193,7.94590718 105.301242,8.56488574 105.942088,9.27098053 C107.48759,10.958291 108.283912,12.9206727 108.331054,15.1581753 C108.331031,15.1581753 108.331031,15.2131648 108.331054,15.3231438 C109.207456,16.5886204 110.78125,17.2213711 113.05244,17.2213463 C114.155011,17.2213711 115.106826,16.914173 115.907888,16.2997522 C116.840825,15.5844925 117.307311,14.6124665 117.307341,13.3836743 C117.307311,10.4950912 115.219913,8.49602503 111.045144,7.38642627 C110.215814,7.1662206 109.801161,6.72159836 109.801187,6.05216323 C109.801161,5.72205289 109.923679,5.42862698 110.168718,5.17183597 C110.423148,4.91509449 110.748265,4.78671137 111.144095,4.78671137 C112.642471,4.78671137 114.13145,5.598277 115.611034,7.22135871 C117.203648,8.97287309 118,10.9260899 118,13.0810587 M97.5595077,12.6546425 C97.5595077,10.9123425 97.0317559,9.51848279 95.9762903,8.47308797 C95.0244623,7.53774645 93.8747446,7.0700633 92.527132,7.0700633 C91.2266251,7.0700633 90.133452,7.4918971 89.2476077,8.33553993 C88.2675163,9.27088145 87.7774745,10.5501055 87.7774745,12.1732119 C87.7774745,13.4937276 88.1827006,14.6216314 88.9931606,15.556973 C89.9072785,16.6023678 91.1135383,17.1250652 92.6119477,17.1250652 C94.3553653,17.1250652 95.6605764,16.6207224 96.5275886,15.612012 C97.2155228,14.8142185 97.5595077,13.8284204 97.5595077,12.6546425" id="kn-wordmark" fill="#000000" fill-rule="nonzero"></path>
    </g>
</svg>

<svg xmlns="http://www.w3.org/2000/svg" width="118" height="20"><path fill="#000" fill-rule="nonzero" d="M17 13.236c0 2.195-.259 3.792-.777 4.792-.69 1.315-1.936 1.972-3.735 1.972-1.3 0-2.34-.648-3.122-1.944-.237-.38-.51-1.047-.818-2 0 .61-.21 1.277-.627 2C7.166 19.352 5.953 20 4.28 20c-1.6 0-2.759-.602-3.477-1.806-.536-.88-.804-2-.804-3.36 0-1.223.336-2.172 1.009-2.848.581-.592 1.309-.889 2.181-.889.745 0 1.377.24 1.895.722.554.51.832 1.163.832 1.959 0 .574-.178 1.041-.532 1.403-.345.36-.74.541-1.186.541-.373 0-.682-.139-.927-.416.045.055.259-.028.64-.25.446-.25.669-.612.669-1.084 0-.537-.164-.963-.491-1.278-.3-.287-.677-.43-1.132-.43-.527 0-.99.199-1.39.597-.446.454-.668 1.051-.668 1.792 0 1.676 1.104 2.514 3.313 2.514 1.245 0 2.235-.278 2.971-.834.528-.398.923-.94 1.186-1.625.119-.36.232-.717.341-1.07l.137.917c.154.704.445 1.269.872 1.695.59.611 1.409.917 2.454.917 2.536 0 3.804-1.574 3.804-4.723a10.96 10.96 0 0 0-.805-4.125c-.6-1.49-1.404-2.564-2.413-3.222.027.39.041.597.041.625 0 1.611-.709 2.417-2.127 2.417-.918 0-1.7-.408-2.344-1.222-.591-.75-.882-1.584-.873-2.5.01-.704.214-1.269.614-1.695C8.516 2.241 9.148 2 9.966 2c1.935 0 3.617 1.236 5.044 3.708C16.337 8.023 17 10.532 17 13.236m-4.935-8.028c0-.333-.027-.55-.082-.652-.39-.362-.963-.542-1.718-.542-1.09 0-1.635.523-1.635 1.57 0 .953.504 1.43 1.513 1.43.5 0 .936-.153 1.308-.458.41-.343.614-.792.614-1.348M33 11.472h-3.33c.515.287.983.741 1.405 1.361.515.769.773 1.593.773 2.473 0 1.509-.497 2.694-1.49 3.555-.88.76-1.967 1.139-3.26 1.139-1.274 0-2.346-.38-3.217-1.139-.984-.861-1.476-2.046-1.476-3.555 0-.88.262-1.704.787-2.473.412-.62.88-1.074 1.405-1.36H21V9.43h5.55c1.124-1.084 1.72-1.95 1.785-2.598-.543.556-1.129.834-1.757.834-.74 0-1.316-.255-1.728-.764-.356-.454-.534-1.037-.534-1.75 0-.797.234-1.505.703-2.125C25.534 2.343 26.18 2 26.958 2c.946 0 1.723.236 2.332.708.61.463.914 1.08.914 1.848 0 1.546-.834 3.17-2.501 4.875H33v2.041m-4.778-6.597c0-.167-.08-.356-.238-.57-.281-.342-.708-.513-1.28-.513-.505 0-.908.125-1.208.375-.29.24-.435.514-.435.82 0 .851.515 1.277 1.546 1.277 1.011 0 1.55-.463 1.615-1.389m2.193 9.472c0-.898-.277-1.634-.83-2.208-.6-.63-1.428-.945-2.487-.945-.936 0-1.733.315-2.388.945-.647.62-.97 1.356-.97 2.208 0 .972.347 1.727 1.04 2.264.618.482 1.391.722 2.318.722.918 0 1.682-.24 2.29-.722.685-.537 1.027-1.292 1.027-2.264m16.538-7.466c0 .999-.261 1.817-.783 2.455-.577.712-1.397 1.068-2.46 1.068-.632 0-1.196-.139-1.69-.416-.541-.305-.811-.698-.811-1.18 0-.276.1-.484.302-.623.348.703 1.09 1.054 2.226 1.054.77 0 1.375-.254 1.814-.763.385-.444.578-.984.578-1.622 0-.721-.055-1.165-.165-1.332.036.084-.188.38-.674.888-.595.62-1.282.929-2.061.929-.816 0-1.475-.287-1.98-.86a2.831 2.831 0 0 1-.686-1.9c0-.72.206-1.317.618-1.789.458-.526 1.095-.79 1.91-.79 1.191 0 2.149.527 2.873 1.58.66.944.99 2.044.99 3.301M53 13.676c0 1.757-.325 3.2-.976 4.327C51.264 19.334 50.132 20 48.63 20c-1.072 0-2.098-.555-3.079-1.664-.778-.878-1.168-1.456-1.168-1.734 0 .352-.307.93-.92 1.734C42.61 19.446 41.565 20 40.328 20c-1.475 0-2.607-.633-3.394-1.9-.623-1.008-.935-2.2-.935-3.578 0-1.155.344-2.08 1.03-2.773.615-.62 1.348-.934 2.2-.943.77-.01 1.415.222 1.937.693.568.527.852 1.244.852 2.15 0 .527-.252.984-.755 1.373-.44.332-.885.499-1.334.499-.366 0-.55-.134-.55-.402.862-.333 1.293-.823 1.293-1.47 0-.444-.184-.805-.55-1.082a1.976 1.976 0 0 0-1.25-.43c-.55 0-1.009.171-1.375.513-.421.398-.632.976-.632 1.734 0 1.858 1.127 2.787 3.38 2.787 1.567 0 2.726-.527 3.478-1.58.44-.62.66-1.175.66-1.665 0 .472.228 1.017.686 1.636.78 1.073 1.988 1.609 3.628 1.609 2.245 0 3.367-.957 3.367-2.87 0-1.24-.563-2.441-1.69-3.606-.531-.555-.797-1.072-.797-1.553 0-.315.11-.578.33-.79.192-.185.39-.278.59-.278.679 0 1.265.569 1.76 1.706.495 1.137.742 2.436.742 3.896M45.455 4.58c-.376-.656-.985-.984-1.828-.984-.55 0-1.003.176-1.36.527-.348.351-.522.753-.522 1.206 0 .814.494 1.22 1.484 1.22 1.08 0 1.823-.656 2.226-1.969M64 20h-4.292c-1.21-.832-2.146-2.057-2.806-3.675C56.3 14.854 56 13.272 56 11.581c0-1.855.347-3.39 1.041-4.607C57.795 5.658 58.815 5 60.101 5c.991 0 1.749.357 2.274 1.07.465.63.698 1.416.698 2.358-.008.978-.25 1.823-.724 2.536-.508.786-1.151 1.18-1.93 1.18-.77 0-1.367-.339-1.79-1.015-.373-.594-.56-1.353-.56-2.276 0-.21.01-.503.026-.878-.88.96-1.32 2.162-1.32 3.606 0 1.691.58 3.286 1.74 4.786 1.32 1.7 3.148 2.91 5.485 3.633M62.387 8.537c0-1.115-.63-1.672-1.892-1.672-.61 0-1.206.205-1.79.617 0 1.846.656 2.77 1.968 2.77a1.65 1.65 0 0 0 1.244-.535c.314-.339.47-.732.47-1.18M84 15.222c-.018 1.306-.391 2.398-1.119 3.278-.811 1-1.93 1.5-3.358 1.5-2.304 0-3.717-1.231-4.24-3.694-.55 2.463-1.935 3.694-4.155 3.694-1.128 0-2.075-.444-2.84-1.333C67.43 17.685 67 16.338 67 14.625c0-1.296.303-2.537.91-3.722a9.597 9.597 0 0 1 1.678-2.292c.513-.518.798-.778.854-.778-.616 0-1.203-.32-1.763-.958-.56-.639-.84-1.269-.84-1.889 0-.842.406-1.537 1.218-2.083C69.96 2.3 71.225 2 72.848 2c2.258 0 4.216.574 5.877 1.722 1.315.908 2.36 2.097 3.134 3.57.625 1.185.937 2.208.937 3.07 0 .184-.023.448-.07.79-.037.297-.056.45-.056.46.905.87 1.348 2.073 1.33 3.61m-2.7-6.875c-.187-.444-.379-.893-.575-1.347a7.842 7.842 0 0 0-2.252-2.542c-1.269-.916-2.752-1.375-4.45-1.375-1.678 0-2.816.26-3.413.778-.383.343-.574.87-.574 1.583 0 .362.117.75.35 1.167.261.472.546.708.853.708 1.4-.592 2.855-.888 4.366-.888 2.136 0 4.034.638 5.694 1.916m.35 3.209c-.466-.473-1.077-.709-1.833-.709-.55 0-1.003.12-1.357.361-.317.213-.476.473-.476.778 0 .639.42.958 1.26.958.708 0 1.329-.226 1.86-.68.476-.417.658-.653.546-.708m1.539 2.625a3.196 3.196 0 0 0-.798-2.028c.02.01-.102.19-.363.541a3.991 3.991 0 0 1-1.106 1.028c-.597.38-1.273.57-2.028.57-.71 0-1.274-.209-1.693-.625-.383-.37-.574-.838-.574-1.403.01-.583.233-1.083.672-1.5.503-.472 1.17-.708 2-.708.635 0 1.213.12 1.735.36.392.177.588.283.588.32 0-.972-.606-1.82-1.819-2.542-1.24-.731-2.747-1.097-4.52-1.097-1.92 0-3.548.584-4.882 1.75-1.409 1.232-2.113 2.82-2.113 4.764 0 1.139.317 2.033.952 2.68.578.603 1.315.903 2.21.903 2.09 0 3.367-1.018 3.834-3.055 0 .361.256.861.77 1.5.81 1.018 1.967 1.528 3.47 1.528 1.24 0 2.187-.31 2.84-.93.587-.547.862-1.232.825-2.056M118 13.08c0 1.953-.405 3.549-1.216 4.787-.923 1.421-2.257 2.132-4 2.132-2.205 0-3.718-1.311-4.538-3.934-.188 1.165-.683 2.1-1.484 2.806-.867.752-1.993 1.128-3.379 1.128-1.13 0-2.153-.431-3.067-1.293-.66-.624-1.23-1.43-1.71-2.42-.35-.735-.523-1.184-.523-1.349 0 .614-.326 1.472-.976 2.572-.98 1.66-2.304 2.49-3.972 2.49-1.941 0-3.482-.912-4.622-2.737C87.504 15.649 87 13.718 87 11.472c0-1.88.42-3.448 1.258-4.704.924-1.376 2.172-2.064 3.746-2.064 2.14 0 3.807 1.069 5.004 3.205.905 1.614 1.357 3.297 1.357 5.048.735 2.779 2.319 4.168 4.75 4.168 1.121 0 1.984-.348 2.587-1.045.546-.624.824-1.458.834-2.504.019-1.494-.467-2.865-1.456-4.112-1.075-1.367-2.403-2.05-3.987-2.05h-2.205V5.048h5.019c2.082 0 3.124-.798 3.124-2.393 0-.66-.406-1.34-1.216-2.036L106.45 0c1.253 1.174 1.88 2.302 1.88 3.384 0 2.687-1.475 4.03-4.424 4.03h-.27a9.936 9.936 0 0 1 2.305 1.857c1.546 1.687 2.342 3.65 2.39 5.887v.165c.875 1.266 2.45 1.898 4.72 1.898 1.103 0 2.055-.307 2.856-.921.933-.716 1.4-1.688 1.4-2.916 0-2.889-2.088-4.888-6.263-5.998-.83-.22-1.244-.664-1.244-1.334 0-.33.123-.623.368-.88.254-.257.58-.385.975-.385 1.498 0 2.987.811 4.467 2.434 1.593 1.752 2.389 3.705 2.389 5.86m-20.44-.426c0-1.743-.528-3.137-1.584-4.182-.952-.935-2.101-1.403-3.449-1.403-1.3 0-2.394.422-3.28 1.266-.98.935-1.47 2.214-1.47 3.837 0 1.32.406 2.449 1.216 3.384.914 1.045 2.12 1.568 3.619 1.568 1.743 0 3.049-.504 3.916-1.513.688-.798 1.032-1.784 1.032-2.957"/></svg>
